!!!COM: Aaron Copland
!!!OTL: T709_Cop-w10p59m5-1h46m1-2
**kern	**dynam	**kern	**dynam	**kern	**dynam	**kern	**dynam	**kern	**dynam	**kern	**dynam	**kern	**dynam	**kern	**dynam	**kern	**dynam	**kern	**dynam	**kern	**dynam	**kern	**dynam	**kern	**dynam
*grp:A	*	*grp:B	*	*grp:B	*	*grp:B	*	*grp:B	*	*grp:A	*	*grp:A	*	*grp:A	*	*grp:A	*	*grp:A	*	*grp:A	*	*grp:A	*	*grp:A	*
*part13	*	*part12	*	*part11	*	*part10	*	*part9	*	*part8	*	*part7	*	*part6	*	*part5	*	*part4	*	*part3	*	*part2	*	*part1	*
*staff13	*	*staff12	*	*staff11	*	*staff10	*	*staff9	*	*staff8	*	*staff7	*	*staff6	*	*staff5	*	*staff4	*	*staff3	*	*staff2	*	*staff1	*
*I"Contrabass	*	*I"Violoncello	*	*I"Viola	*	*I"Violin II	*	*I"Violin I	*	*I"Trumpet in C II.	*	*I"Trumpet in C I.	*	*I"Contrabassoon	*	*I"Bassoon I. II.	*	*I"Heckelphone	*	*I"Oboe I.	*	*I"Flute I. II.	*	*I"Piccolo	*
*I'Cb.	*	*I'Vc.	*	*I'Vla.	*	*I'Vln. II	*	*I'Vln. I	*	*I'C Tpt.	*	*I'C Tpt.	*	*I'Cbsn.	*	*I'Bsn.	*	*I'Heckl.	*	*I'Ob.	*	*I'Fl.	*	*I'Picc.	*
*clefF4	*	*clefF4	*	*clefC3	*	*clefG2	*	*clefG2	*	*clefG2	*	*clefG2	*	*clefF4	*	*clefF4	*	*clefG2	*	*clefG2	*	*clefG2	*	*clefG2	*
*ITrd7c12	*	*	*	*	*	*	*	*	*	*	*	*	*	*ITrd7c12	*	*	*	*ITrd7c12	*	*	*	*	*	*ITrd-7c-12	*
*k[]	*	*k[]	*	*k[]	*	*k[]	*	*k[]	*	*k[]	*	*k[]	*	*k[]	*	*k[]	*	*k[]	*	*k[]	*	*k[]	*	*k[]	*
*	*	*	*	*	*	*	*	*	*	*	*	*	*	*	*	*	*	*	*	*	*	*	*	*	*
*M3/8	*	*M3/8	*	*M3/8	*	*M3/8	*	*M3/8	*	*M3/8	*	*M3/8	*	*M3/8	*	*M3/8	*	*M3/8	*	*M3/8	*	*M3/8	*	*M3/8	*
=1	=1	=1	=1	=1	=1	=1	=1	=1	=1	=1	=1	=1	=1	=1	=1	=1	=1	=1	=1	=1	=1	=1	=1	=1	=1
!	!	!	!	!	!	!	!	!	!	!	!	!	!	!	!	!	!	!	!	!	!	!	!	!LO:TX:t=[[quarter]=144]	!
!	!	!	!	!	!LO:DY:ed=brack	!LO:TX:rj:t=div.	!LO:DY:ed=brack	!LO:TX:rj:t=div.	!LO:DY:ed=brack	!	!LO:DY:ed=brack	!	!LO:DY:ed=brack	!	!LO:DY:ed=brack	!	!LO:DY:ed=brack	!	!LO:DY:ed=brack	!	!LO:DY:ed=brack	!	!LO:DY:ed=brack	!LO:TX:a:t=[(exaggerate all accents)]	!LO:DY:ed=brack
8%3r	.	8%3r	.	8a	f	8ddL 8ddd	f	8ee^L 8eee	f	8r	mf	8ee^	mf	8%3r	ff	8%3r	f	4r	f	4r	f	8eee^	f	8eee^	f
.	.	.	.	8b^L	.	8aJ 8aa	.	8ff#X 8fff#X	.	8bn	.	8r	.	.	.	.	.	.	.	.	.	8r	.	8r	.
.	.	.	.	8cc#X	.	8b^ 8bb	.	8eeJ 8eee	.	8r^	.	8r	.	.	.	.	.	8b^	.	8bb^	.	8r	.	8r	.
=2	=2	=2	=2	=2	=2	=2	=2	=2	=2	=2	=2	=2	=2	=2	=2	=2	=2	=2	=2	=2	=2	=2	=2	=2	=2
*M4/8	*	*M4/8	*	*M4/8	*	*M4/8	*	*M4/8	*	*M4/8	*	*M4/8	*	*M4/8	*	*M4/8	*	*M4/8	*	*M4/8	*	*M4/8	*	*M4/8	*
2r	.	2r	.	8ddJ	.	8r	.	8ff#X^ 8fff#X	.	4r^	.	8ff#X^	.	2r	.	2r	.	8r^	.	8r^	.	8fff#X^	.	8fff#X^	.
.	.	.	.	8r	.	8g#X^L 8gg#X	.	8r	.	.	.	8r^	.	.	.	.	.	8g#X^	.	8gg#X^	.	8r^	.	8r^	.
.	.	.	.	8f#X^Lu	.	8aJ 8aa	.	8dd#X^L 8ddd#X	.	8f#X	.	8dd#X^	.	.	.	.	.	8r	.	8r	.	8ddd#X^	.	8ddd#X^	.
.	.	.	.	8g#XJ	.	8g#^L 8gg#	.	8eeJ 8eee	.	8r	.	8r	.	.	.	.	.	8g#^	.	8gg#^	.	8r	.	8r	.
=3	=3	=3	=3	=3	=3	=3	=3	=3	=3	=3	=3	=3	=3	=3	=3	=3	=3	=3	=3	=3	=3	=3	=3	=3	=3
*M3/8	*	*M3/8	*	*M3/8	*	*M3/8	*	*M3/8	*	*M3/8	*	*M3/8	*	*M3/8	*	*M3/8	*	*M3/8	*	*M3/8	*	*M3/8	*	*M3/8	*
!LO:TX:a:rj:t=[pizz.]	!LO:DY:ed=brack	!	!LO:DY:ed=brack	!	!	!	!	!	!	!	!	!	!	!	!	!	!	!	!	!	!	!	!	!	!
8DD-"X^	ff	8E-X^L	ff	8a^L	.	8a 8aa	.	8dd#X^L 8ddd#X	.	8a	.	8dd#X^	.	8%3r	.	8DD-X^ 8E-X	.	8%3r	.	8%3r	.	8ddd#X^	.	8ddd#X^	.
8r	.	8C	.	8b	.	8g#XJ 8gg#X	.	8ee 8eee	.	8r	.	8r	.	.	.	8r	.	.	.	.	.	8r	.	8r	.
8r	.	8AA-XJ	.	8cc#XJ	.	8r	.	8dd#J 8ddd#	.	8r	.	8r	.	.	.	8r	.	.	.	.	.	8r	.	8r	.
=4	=4	=4	=4	=4	=4	=4	=4	=4	=4	=4	=4	=4	=4	=4	=4	=4	=4	=4	=4	=4	=4	=4	=4	=4	=4
*M4/8	*	*M4/8	*	*M4/8	*	*M4/8	*	*M4/8	*	*M4/8	*	*M4/8	*	*M4/8	*	*M4/8	*	*M4/8	*	*M4/8	*	*M4/8	*	*M4/8	*
8DD-"X^	.	8E-X^	.	8r	.	8a^Lu 8aau	.	4r	.	8r^	.	4r	.	2r	.	8DD-X^ 8E-X	.	8a^	.	8aa^	.	4r	.	4r	.
8r	.	8r	.	8e^Lv	.	8bJ 8bb	.	.	.	8e^	.	.	.	.	.	8r	.	8r^	.	8r^	.	.	.	.	.
8r	.	4r	.	8f#XJ	.	8cc#X^L 8ccc#X	.	8ee^Lv 8eeev	.	8r^	.	8ee^	.	.	.	4r	.	8cc#X^	.	8ccc#X^	.	8eee^	.	8eee^	.
8r	.	.	.	8g#X^L	.	8dd 8ddd	.	8ff#XJ 8fff#X	.	8g#X^	.	8r	.	.	.	.	.	8r^	.	8r^	.	8r	.	8r	.
=5	=5	=5	=5	=5	=5	=5	=5	=5	=5	=5	=5	=5	=5	=5	=5	=5	=5	=5	=5	=5	=5	=5	=5	=5	=5
*M3/8	*	*M3/8	*	*M3/8	*	*M3/8	*	*M3/8	*	*M3/8	*	*M3/8	*	*M3/8	*	*M3/8	*	*M3/8	*	*M3/8	*	*M3/8	*	*M3/8	*
4r	.	4r	.	8a	<	8cc#XJ 8ccc#X	<	8gg#X^L 8ggg#X	<	4r^	<	8gg#X^	<	8%3r	.	4r	<	8r^	<	8r^	<	8ggg#X^	<	8ggg#X^	<
.	.	.	.	8g#XJ	.	8ee^ 8eee	.	8aa 8aaa	.	.	.	8r	.	.	.	.	.	8ee^	.	8eee^	.	8r	.	8r	.
8DD-"X^	<	8E-X^L	<	8fn^	.	8r	.	8gg#J 8ggg#	.	8f#X^	.	8r	.	.	.	8DD-X^ 8E-X	.	8r^	.	8r^	.	8r	.	8r	.
!!LO:REH:t=46
=6	=6	=6	=6	=6	=6	=6	=6	=6	=6	=6	=6	=6	=6	=6	=6	=6	=6	=6	=6	=6	=6	=6	=6	=6	=6
*M5/8	*	*M5/8	*	*M5/8	*	*M5/8	*	*M5/8	*	*M5/8	*	*M5/8	*	*M5/8	*	*M5/8	*	*M5/8	*	*M5/8	*	*M5/8	*	*M5/8	*
4r	.	8C	.	8r	.	8b^L 8bb	.	8bb 8bbb	.	8r	.	8bb^	.	8%5r	.	4r	.	8b^	.	8bb^	.	8bbb^	.	8bbb^	.
.	.	8AA-XJ	.	8a'	.	8cc#X 8ccc#X	.	8r	.	8r	.	8r	.	.	.	.	.	8r	.	8r	.	8r	.	8r	.
=:	=:	=:	=:	=:	=:	=:	=:	=:	=:	=:	=:	=:	=:	=-	=-	=:	=:	=:	=:	=:	=:	=:	=:	=:	=:
8DD-"X^	.	8E-X^	.	8g#X^L	.	8bJ 8bb	.	8ff#X^ 8fff#X	.	8g#X^	.	8ff#X^	.	.	.	8DD-X^ 8E-X	.	8r	.	8r	.	8fff#X^	.	8fff#X^	.
4r	.	4r	.	8a	.	8dd^ 8ddd	.	8gg#XL 8ggg#X	.	4r	.	4r	.	.	.	4r	.	8dd^	.	8ddd^	.	4r	.	4r	.
.	.	.	.	8bJ	.	8r	.	8ff#J 8fff#	.	.	.	.	.	.	.	.	.	8r	.	8r	.	.	.	.	.
*	*	*	*	*clefG2	*	*	*	*	*	*	*	*	*	*	*	*	*	*	*	*	*	*	*	*	*
=7	=7	=7	=7	=7	=7	=7	=7	=7	=7	=7	=7	=7	=7	=7	=7	=7	=7	=7	=7	=7	=7	=7	=7	=7	=7
4r	.	4r	.	8cc#X^L	.	8b^L 8bb	.	8aa^ 8aaa	.	8cc#X^	.	8aa^	.	4r	.	4r	.	8b^	.	8bb^	.	8aaa^	.	8aaa^	.
.	.	.	.	8dd	.	8cc#XJ 8ccc#X	.	8r	.	8r	.	8r	.	.	.	.	.	8r	.	8r	.	8r	.	8r	.
=:	=:	=:	=:	=:	=:	=:	=:	=:	=:	=:	=:	=:	=:	=:	=:	=:	=:	=:	=:	=:	=:	=:	=:	=:	=:
4r	.	4r	.	8cc#J	.	8dd^L 8ddd	.	8gg#X^ 8ggg#X	.	8r	.	8r	.	4r	.	4r	.	8r	.	8r	.	8gg#X^	.	8ggg#X^	.
.	.	.	.	8ee^	.	8cc# 8ccc#	.	8ff#XL 8fff#X	.	4r	.	4r	.	.	.	.	.	8dd^	.	8ddd^	.	4r	.	4r	.
!	!	!	!	!	!	!	!	!	!	!	!	!	!	!	!	!LO:TX:a:rj:t=a2	!	!	!	!	!	!	!	!	!
!	!	!	!	!	!	!	!	!	!	!	!	!	!	!	!	!LO:TX:t=P:problem: Add Hanging Beams	!	!	!	!	!	!	!	!	!
!	!	!LO:TX:t=P:problem: Add Hanging Beams	!	!	!	!	!	!	!	!	!	!	!	!	!	!	!	!	!	!	!	!	!	!	!
8DD-"X^	.	8E-X^/	.	8r	.	8bJ 8bb	.	8aaJ 8aaa	.	.	.	.	.	8DD-X^	.	8E-X^/	.	8r	.	8r	.	.	.	.	.
=||	=||	=||	=||	=||	=||	=||	=||	=||	=||	=||	=||	=||	=||	=||	=||	=||	=||	=||	=||	=||	=||	=||	=||	=||	=||
*-	*-	*-	*-	*-	*-	*-	*-	*-	*-	*-	*-	*-	*-	*-	*-	*-	*-	*-	*-	*-	*-	*-	*-	*-	*-
!!!system-decoration: [(s1,s2,s3,s4,s5,s6)][(s7,s8)][(s9,s10,s11,s12,s13)]
!!!EED: Rafael Laurindo
!!!EEV: 2021/09/17
!!!EED2: Gabriella Vici
!!!EEV2: 2022/03/01
